images/svg/smartFan-logo.svg

<svg width="130" height="41" viewBox="0 0 130 41" fill="none" xmlns="http://www.w3.org/2000/svg">
<g clip-path="url(#clip0)">
<path d="M9.44428 11.2676C8.29538 10.5588 7.59437 9.96179 7.34122 9.47676C7.08808 8.97307 6.95177 8.24553 6.95177 7.25681C6.95177 6.49195 7.0686 5.9323 7.30227 5.54055C7.53595 5.16744 7.86698 4.98089 8.31486 4.98089C8.72378 4.98089 9.01588 5.11148 9.19113 5.3913C9.36638 5.67113 9.46375 6.32406 9.46375 7.33143V9.51407H16.3766V8.35746C16.3766 6.02558 16.1624 4.36528 15.7145 3.39522C15.2666 2.42515 14.3709 1.60433 13.0078 0.970062C11.6447 0.317136 10.009 0 8.08118 0C6.30917 0 4.80976 0.298481 3.56351 0.876787C2.29778 1.47375 1.40204 2.27591 0.837328 3.3206C0.272618 4.36528 0 6.00692 0 8.26418C0 9.8312 0.194727 11.0997 0.584182 12.1071C0.973637 13.1145 1.47993 13.898 2.08358 14.4763C2.68724 15.0546 3.91402 15.9501 5.76393 17.2186C7.61384 18.4685 8.7822 19.3639 9.24955 19.8863C9.71689 20.4273 9.93109 21.5466 9.93109 23.2815C9.93109 24.065 9.81426 24.662 9.56111 25.0537C9.32744 25.4455 8.95746 25.6507 8.45117 25.6507C7.96435 25.6507 7.61384 25.5014 7.41911 25.1843C7.22438 24.8672 7.12702 24.1583 7.12702 23.0576V19.4759H0.233673V21.3973C0.233673 23.5986 0.447873 25.2962 0.895746 26.4902C1.32415 27.6841 2.25884 28.6728 3.66087 29.4563C5.06291 30.2398 6.77651 30.6129 8.76273 30.6129C10.5737 30.6129 12.1705 30.2771 13.5335 29.6055C14.8966 28.934 15.8119 28.0945 16.2987 27.1058C16.766 26.1171 17.0192 24.5687 17.0192 22.4793C17.0192 19.6064 16.5908 17.5171 15.734 16.2112C14.8382 14.9427 12.7546 13.2824 9.44428 11.2676Z" fill="#1A7DD7"/>
<path d="M30.8838 14.3727L29.8322 6.89204C29.5207 4.48554 29.2286 2.41483 28.956 0.642609H19.3364V30.0429H25.8403V10.6604L28.5665 30.0429H33.1815L35.7714 10.194V30.0429H42.2753V0.642609H32.5974L30.8838 14.3727Z" fill="#1A7DD7"/>
<path d="M47.3771 0.642609L43.58 30.0429H51.2717L51.7196 24.7635H54.3873L54.7768 30.0429H62.3712L58.1261 0.642609H47.3771ZM51.6222 19.5401C51.8169 16.9471 52.2843 12.8243 53.0437 7.19052C53.4137 12.0968 53.8032 16.2009 54.1731 19.5401H51.6222Z" fill="#1A7DD7"/>
<path d="M80.0524 17.9366C79.9356 17.4143 79.6046 16.836 79.0983 16.2017C78.592 15.5674 77.5989 15.0638 76.1384 14.6907C77.7546 14.5414 78.8451 14.0564 79.4098 13.2729C79.9551 12.4894 80.2472 10.941 80.2472 8.66509C80.2472 6.16531 79.8577 4.33712 79.0788 3.19916C78.2999 2.06121 77.2873 1.35232 76.041 1.07249C74.7948 0.792664 72.4191 0.662079 68.914 0.662079H63.6564V30.0624H71.0755V16.8173C72.1075 16.8173 72.7307 17.0039 72.9838 17.377C73.2175 17.7501 73.3538 18.7201 73.3538 20.3058V30.0811H75.7295L80.2666 25.7344V22.3392C80.2472 19.9141 80.1887 18.459 80.0524 17.9366ZM73.3343 9.56053C73.3343 10.8477 73.1591 11.6126 72.828 11.8551C72.497 12.0976 71.9128 12.2095 71.0755 12.2095V5.68028C71.9323 5.68028 72.536 5.82952 72.8475 6.10935C73.1786 6.40783 73.3343 7.00479 73.3343 7.93754V9.56053Z" fill="#1A7DD7"/>
<path d="M98.1036 6.51895V0.642609H81.8439V6.51895H86.2447V19.9319L93.6833 12.8057V6.51895H98.1036Z" fill="#1A7DD7"/>
<path d="M98.3763 26.0424H93.8197V21.5466H98.9215V16.8082L92.9824 16.3418L86.4006 22.6845L86.459 40.4814H93.8197V30.5383H98.3763V26.0424Z" fill="#F34605"/>
<path d="M102.602 16.6923L99.5447 40.3655H105.737L106.088 36.1122H108.23L108.541 40.3655H114.656L111.248 16.6923H102.602ZM106.01 31.9148C106.165 29.8255 106.555 26.5049 107.159 21.9717C107.47 25.9266 107.762 29.2285 108.074 31.9148H106.01Z" fill="#F34605"/>
<path d="M124.996 16.5949V27.2656L121.646 16.5949H116.622V40.2682H121.646V29.5042L124.762 40.2682H130V16.5949H124.996Z" fill="#F34605"/>
</g>
<defs>
<clipPath id="clip0">
<rect width="130" height="40.6834" fill="white"/>
</clipPath>
</defs>
</svg>

<?xml version="1.0" encoding="utf-8"?>
<!-- Generator: Adobe Illustrator 25.2.0, SVG Export Plug-In . SVG Version: 6.00 Build 0)  -->
<svg version="1.1" id="Camada_1" xmlns="http://www.w3.org/2000/svg" xmlns:xlink="http://www.w3.org/1999/xlink" x="0px" y="0px"
	 viewBox="0 0 130 41" style="enable-background:new 0 0 130 41;" xml:space="preserve">
<style type="text/css">
	.st0{clip-path:url(#SVGID_2_);}
	.st1{fill:#1A7DD7;}
	.st2{fill:#F37402;}
</style>
<g>
	<defs>
		<rect id="SVGID_1_" width="130" height="40.7"/>
	</defs>
	<clipPath id="SVGID_2_">
		<use xlink:href="#SVGID_1_"  style="overflow:visible;"/>
	</clipPath>
	<g class="st0">
		<path class="st1" d="M9.4,11.3C8.3,10.6,7.6,10,7.3,9.5C7.1,9,7,8.2,7,7.3c0-0.8,0.1-1.3,0.4-1.7C7.5,5.2,7.9,5,8.3,5
			C8.7,5,9,5.1,9.2,5.4c0.2,0.3,0.3,0.9,0.3,1.9v2.2h6.9V8.4c0-2.3-0.2-4-0.7-5c-0.4-1-1.3-1.8-2.7-2.4c-1.4-0.7-3-1-4.9-1
			C6.3,0,4.8,0.3,3.6,0.9C2.3,1.5,1.4,2.3,0.8,3.3C0.3,4.4,0,6,0,8.3c0,1.6,0.2,2.8,0.6,3.8s0.9,1.8,1.5,2.4
			c0.6,0.6,1.8,1.5,3.7,2.7c1.8,1.2,3,2.1,3.5,2.7c0.5,0.5,0.7,1.7,0.7,3.4c0,0.8-0.1,1.4-0.4,1.8c-0.2,0.4-0.6,0.6-1.1,0.6
			c-0.5,0-0.8-0.1-1-0.5c-0.2-0.3-0.3-1-0.3-2.1v-3.6H0.2v1.9c0,2.2,0.2,3.9,0.7,5.1c0.4,1.2,1.4,2.2,2.8,3c1.4,0.8,3.1,1.2,5.1,1.2
			c1.8,0,3.4-0.3,4.8-1c1.4-0.7,2.3-1.5,2.8-2.5c0.5-1,0.7-2.5,0.7-4.6c0-2.9-0.4-5-1.3-6.3C14.8,14.9,12.8,13.3,9.4,11.3z"/>
		<path class="st1" d="M30.9,14.4l-1.1-7.5c-0.3-2.4-0.6-4.5-0.9-6.2h-9.6V30h6.5V10.7L28.6,30h4.6l2.6-19.8V30h6.5V0.6h-9.7
			L30.9,14.4z"/>
		<path class="st1" d="M47.4,0.6L43.6,30h7.7l0.4-5.3h2.7l0.4,5.3h7.6L58.1,0.6H47.4z M51.6,19.5c0.2-2.6,0.7-6.7,1.4-12.3
			c0.4,4.9,0.8,9,1.1,12.3H51.6z"/>
		<path class="st1" d="M80.1,17.9c-0.1-0.5-0.4-1.1-1-1.7c-0.5-0.6-1.5-1.1-3-1.5c1.6-0.1,2.7-0.6,3.3-1.4c0.5-0.8,0.8-2.3,0.8-4.6
			c0-2.5-0.4-4.3-1.2-5.5c-0.8-1.1-1.8-1.8-3-2.1c-1.2-0.3-3.6-0.4-7.1-0.4h-5.3v29.4h7.4V16.8c1,0,1.7,0.2,1.9,0.6
			c0.2,0.4,0.4,1.3,0.4,2.9v9.8h2.4l4.5-4.3v-3.4C80.2,19.9,80.2,18.5,80.1,17.9z M73.3,9.6c0,1.3-0.2,2.1-0.5,2.3
			c-0.3,0.2-0.9,0.4-1.8,0.4V5.7c0.9,0,1.5,0.1,1.8,0.4c0.3,0.3,0.5,0.9,0.5,1.8V9.6z"/>
		<path class="st1" d="M98.1,6.5V0.6H81.8v5.9h4.4v13.4l7.4-7.1V6.5H98.1z"/>
		<path class="st2" d="M98.4,26h-4.6v-4.5h5.1v-4.7L93,16.3l-6.6,6.3l0.1,17.8h7.4v-9.9h4.6V26z"/>
		<path class="st2" d="M102.6,16.7l-3.1,23.7h6.2l0.4-4.3h2.1l0.3,4.3h6.1l-3.4-23.7H102.6z M106,31.9c0.2-2.1,0.5-5.4,1.1-9.9
			c0.3,4,0.6,7.3,0.9,9.9H106z"/>
		<path class="st2" d="M125,16.6v10.7l-3.3-10.7h-5v23.7h5V29.5l3.1,10.8h5.2V16.6H125z"/>
	</g>
</g>
</svg>
